brandFactory_export/2.Regular/Salir pantalla completa_2Regular.svg

<?xml version="1.0" encoding="UTF-8"?>
<svg width="24px" height="24px" viewBox="0 0 24 24" version="1.1" xmlns="http://www.w3.org/2000/svg" xmlns:xlink="http://www.w3.org/1999/xlink">
    <title>2.Regular/Salir pantalla completa_2Regular</title>
    <g id="Symbols" stroke="none" stroke-width="1" fill="none" fill-rule="evenodd">
        <g id="2.Regular/Salir-pantalla-completa_2Regular" fill="#5CB615" fill-rule="nonzero">
            <path d="M22.6285714,15.1764706 C23.1865546,15.1966387 23.6235294,15.6672269 23.6033613,16.2285714 C23.5831933,16.7563025 23.1596639,17.1831933 22.6285714,17.2033613 L17.2201681,17.2033613 L17.2201681,22.6151261 C17.2201681,23.1731092 16.7663866,23.6268908 16.205042,23.6268908 C15.6470588,23.6268908 15.1932773,23.1731092 15.1932773,22.6151261 L15.1932773,16.1882353 C15.1932773,15.6268908 15.6470588,15.1764706 16.205042,15.1764706 L22.6285714,15.1764706 L22.6285714,15.1764706 Z M7.45546218,15.1764706 C8.01344538,15.1764706 8.46722689,15.6302521 8.46722689,16.1882353 L8.46722689,22.6117647 C8.43697479,23.1697479 7.95966387,23.6 7.40168067,23.5697479 C6.88403361,23.5428571 6.47394958,23.1294118 6.44369748,22.6117647 L6.44369748,17.2 L1.03193277,17.2 C0.470588235,17.1798319 0.0336134454,16.7092437 0.0571428571,16.1512605 C0.0773109244,15.6235294 0.500840336,15.1966387 1.03193277,15.1764706 L7.45546218,15.1764706 L7.45546218,15.1764706 Z M7.45546218,0 C8.01344538,0 8.46722689,0.453781513 8.46722689,1.01176471 L8.46722689,7.43529412 C8.46722689,7.99327731 8.01344538,8.44705882 7.45546218,8.44705882 L1.03193277,8.44705882 C0.47394958,8.44705882 0.0201680672,7.99327731 0.0201680672,7.43193277 C0.0201680672,6.87394958 0.47394958,6.42016807 1.03193277,6.42016807 L6.44033613,6.42016807 L6.44033613,1.01176471 C6.44033613,0.453781513 6.89411765,0 7.45546218,0 L7.45546218,0 Z M16.2084034,8.44705882 C15.6504202,8.44705882 15.1966387,7.99327731 15.1966387,7.43529412 L15.1966387,1.01176471 C15.2268908,0.453781513 15.7042017,0.0235294118 16.2621849,0.0537815126 C16.7798319,0.0806722689 17.189916,0.494117647 17.2201681,1.01176471 L17.2201681,6.42016807 L22.6319328,6.42016807 C23.189916,6.44033613 23.6268908,6.91092437 23.6067227,7.47226891 C23.5865546,8 23.1630252,8.42689076 22.6319328,8.44705882 L16.2084034,8.44705882 L16.2084034,8.44705882 Z" id="Salir-pantalla-completa_2Regular"></path>
        </g>
    </g>
</svg>

<svg width="24" height="24" viewBox="0 0 24 24" xmlns="http://www.w3.org/2000/svg"><path d="M22.629 15.176a1.014 1.014 0 010 2.027H17.22v5.412a1.014 1.014 0 01-2.027 0v-6.427a1.01 1.01 0 011.012-1.012h6.424zm-15.174 0c.558 0 1.012.454 1.012 1.012v6.424a1.014 1.014 0 01-2.023 0V17.2H1.032a1.009 1.009 0 01-.975-1.049c.02-.527.444-.954.975-.975h6.423zM7.455 0c.558 0 1.012.454 1.012 1.012v6.423c0 .558-.454 1.012-1.012 1.012H1.032a1.014 1.014 0 010-2.027H6.44V1.012C6.44.454 6.894 0 7.455 0zm8.753 8.447a1.013 1.013 0 01-1.011-1.012V1.012a1.014 1.014 0 012.023 0V6.42h5.412a1.014 1.014 0 010 2.027h-6.424z" fill="#5CB615" fill-rule="nonzero"/></svg>
